imgs/diamond 1.svg

<?xml version="1.0" encoding="UTF-8" standalone="no"?>
<svg
   xmlns:dc="http://purl.org/dc/elements/1.1/"
   xmlns:cc="http://creativecommons.org/ns#"
   xmlns:rdf="http://www.w3.org/1999/02/22-rdf-syntax-ns#"
   xmlns:svg="http://www.w3.org/2000/svg"
   xmlns="http://www.w3.org/2000/svg"
   xmlns:sodipodi="http://sodipodi.sourceforge.net/DTD/sodipodi-0.dtd"
   xmlns:inkscape="http://www.inkscape.org/namespaces/inkscape"
   width="367.577"
   height="228.332"
   viewBox="0 0 367.577 228.332"
   fill="none"
   version="1.1"
   id="svg37"
   sodipodi:docname="diamond 1.svg"
   inkscape:version="1.0.1 (3bc2e813f5, 2020-09-07)">
  <metadata
     id="metadata41">
    <rdf:RDF>
      <cc:Work
         rdf:about="">
        <dc:format>image/svg+xml</dc:format>
        <dc:type
           rdf:resource="http://purl.org/dc/dcmitype/StillImage" />
        <dc:title></dc:title>
      </cc:Work>
    </rdf:RDF>
  </metadata>
  <sodipodi:namedview
     pagecolor="#ffffff"
     bordercolor="#666666"
     borderopacity="1"
     objecttolerance="10"
     gridtolerance="10"
     guidetolerance="10"
     inkscape:pageopacity="0"
     inkscape:pageshadow="2"
     inkscape:window-width="1366"
     inkscape:window-height="705"
     id="namedview39"
     showgrid="false"
     inkscape:zoom="0.80597558"
     inkscape:cx="296.96132"
     inkscape:cy="169.55153"
     inkscape:window-x="-8"
     inkscape:window-y="-8"
     inkscape:window-maximized="1"
     inkscape:current-layer="svg37" />
  <g
     clip-path="url(#clip0_105:14)"
     id="g30"
     transform="matrix(0.7419665,0,0,0.7419665,-1.8427569,-8.1055744)">
    <path
       d="m 407.049,18.8566 -0.368,88.7774 h -0.004 V 18.9607 H 181.755 v 88.6753 h -0.004 L 181.382,19.3211 93.0241,107.637 v 7.964 L 293.598,318.189 495.409,115.596 v -7.963 z"
       fill="#e9c46a"
       id="path2" />
    <path
       d="m 93.6237,16.9445 2.2616,29.5926 66.8697,-28.9 49.081,26.3823 48.471,-25.9751 61.014,31.8077 -1.259,-32.9075 z"
       stroke="#84a59d"
       stroke-opacity="0.997685"
       stroke-width="4"
       id="path4" />
    <path
       d="M 93.6202,106.22 4.29556,106.221 95.8853,46.5394 Z"
       stroke="#84a59d"
       stroke-opacity="0.997685"
       stroke-width="4"
       id="path6" />
    <path
       d="m 4.29556,106.221 v 8.017 L 409.39,114.233 v -8.017 z"
       stroke="#84a59d"
       stroke-opacity="0.997685"
       stroke-width="4"
       id="path8" />
    <path
       d="m 206.22,318.19 46.033,-204.202 -104.85,-0.205 z"
       stroke="#84a59d"
       stroke-opacity="0.997685"
       stroke-width="4"
       id="path10" />
    <path
       d="M 95.8853,46.5395 4.29556,106.221 93.248,17.3098 Z"
       stroke="#84a59d"
       stroke-opacity="0.997685"
       stroke-width="4"
       id="path12" />
    <path
       d="m 320.437,16.8421 88.954,89.3739 -88.07,-56.3617 z"
       stroke="#84a59d"
       stroke-opacity="0.997685"
       stroke-width="4"
       id="path14" />
    <path
       d="M 162.756,17.6392 95.8856,46.5393 93.6207,106.219 211.837,44.0216 Z m 49.081,26.3824 108.225,62.1954 1.259,-56.3628 -61.014,-31.8077 z"
       stroke="#84a59d"
       stroke-opacity="0.997685"
       stroke-width="4"
       id="path16" />
    <path
       d="M 211.836,44.0217 93.62,106.22 320.062,106.217 Z"
       stroke="#84a59d"
       stroke-opacity="0.997685"
       stroke-width="4"
       id="path18" />
    <path
       d="M 320.062,106.217 409.39,106.216 321.32,49.8542 Z"
       stroke="#84a59d"
       stroke-opacity="0.997685"
       stroke-width="4"
       id="path20" />
    <path
       d="M 4.29515,114.238 206.22,318.19 63.4316,114.414 Z"
       stroke="#84a59d"
       stroke-opacity="0.997685"
       stroke-width="4"
       id="path22" />
    <path
       d="M 206.219,318.19 147.402,113.784 63.4312,114.413 Z"
       stroke="#84a59d"
       stroke-opacity="0.997685"
       stroke-width="4"
       id="path24" />
    <path
       d="m 206.219,318.19 134.914,-203.777 -88.88,-0.425 z"
       stroke="#84a59d"
       stroke-opacity="0.997685"
       stroke-width="4"
       id="path26" />
    <path
       d="M 206.219,318.19 409.39,114.233 341.133,114.414 Z"
       stroke="#84a59d"
       stroke-opacity="0.997685"
       stroke-width="4"
       id="path28" />
  </g>
  <defs
     id="defs35">
    <clipPath
       id="clip0_105:14">
      <rect
         width="519"
         height="320"
         fill="#ffffff"
         id="rect32"
         x="0"
         y="0" />
    </clipPath>
  </defs>
</svg>

<svg width="519" height="320" viewBox="0 0 519 320" fill="none" xmlns="http://www.w3.org/2000/svg">
<g clip-path="url(#clip0_105:14)">
<path d="M407.049 18.8566L406.681 107.634H406.677V18.9607H181.755V107.636H181.751L181.382 19.3211L93.0241 107.637V115.601L293.598 318.189L495.409 115.596V107.633L407.049 18.8566Z" fill="#E9C46A"/>
<path d="M93.6237 16.9445L95.8853 46.5371L162.755 17.6371L211.836 44.0194L260.307 18.0443L321.321 49.852L320.062 16.9445H93.6237Z" stroke="#84A59D" stroke-opacity="0.997685" stroke-width="4"/>
<path d="M93.6202 106.22L4.29556 106.221L95.8853 46.5394L93.6202 106.22Z" stroke="#84A59D" stroke-opacity="0.997685" stroke-width="4"/>
<path d="M4.29556 106.221V114.238L409.39 114.233V106.216L4.29556 106.221Z" stroke="#84A59D" stroke-opacity="0.997685" stroke-width="4"/>
<path d="M206.22 318.19L252.253 113.988L147.403 113.783L206.22 318.19Z" stroke="#84A59D" stroke-opacity="0.997685" stroke-width="4"/>
<path d="M95.8853 46.5395L4.29556 106.221L93.248 17.3098L95.8853 46.5395Z" stroke="#84A59D" stroke-opacity="0.997685" stroke-width="4"/>
<path d="M320.437 16.8421L409.391 106.216L321.321 49.8543L320.437 16.8421Z" stroke="#84A59D" stroke-opacity="0.997685" stroke-width="4"/>
<path d="M162.756 17.6392L95.8856 46.5393L93.6207 106.219L211.837 44.0216L162.756 17.6392ZM211.837 44.0216L320.062 106.217L321.321 49.8542L260.307 18.0465L211.837 44.0216Z" stroke="#84A59D" stroke-opacity="0.997685" stroke-width="4"/>
<path d="M211.836 44.0217L93.62 106.22L320.062 106.217L211.836 44.0217Z" stroke="#84A59D" stroke-opacity="0.997685" stroke-width="4"/>
<path d="M320.062 106.217L409.39 106.216L321.32 49.8542L320.062 106.217Z" stroke="#84A59D" stroke-opacity="0.997685" stroke-width="4"/>
<path d="M4.29515 114.238L206.22 318.19L63.4316 114.414L4.29515 114.238Z" stroke="#84A59D" stroke-opacity="0.997685" stroke-width="4"/>
<path d="M206.219 318.19L147.402 113.784L63.4312 114.413L206.219 318.19Z" stroke="#84A59D" stroke-opacity="0.997685" stroke-width="4"/>
<path d="M206.219 318.19L341.133 114.413L252.253 113.988L206.219 318.19Z" stroke="#84A59D" stroke-opacity="0.997685" stroke-width="4"/>
<path d="M206.219 318.19L409.39 114.233L341.133 114.414L206.219 318.19Z" stroke="#84A59D" stroke-opacity="0.997685" stroke-width="4"/>
</g>
<defs>
<clipPath id="clip0_105:14">
<rect width="519" height="320" fill="white"/>
</clipPath>
</defs>
</svg>
